contributed-vectors/quoda.svg

<svg xmlns="http://www.w3.org/2000/svg" xml:space="preserve" style="fill-rule:evenodd;clip-rule:evenodd;stroke-linejoin:round;stroke-miterlimit:2" viewBox="0 0 192 192"><g transform="translate(8 8)"><circle cx="88" cy="88" r="88" style="fill:#71a372"/><path d="m118.836 120.919-16.349 16.349-13.52-13.521 16.303-16.302 13.566 13.474Z" style="fill:#fff" transform="translate(-8 -8)"/><path d="M144.491 144.815a3.85 3.85 0 0 1-3.85 3.85H61.688a3.85 3.85 0 0 1-3.849-3.85V73.784h24.532v50.348h58.27a3.85 3.85 0 0 1 3.85 3.849v16.834Z" style="fill:#98dc9a" transform="rotate(45 76.301 96.099) scale(.77939)"/><path d="M144.491 144.815a3.85 3.85 0 0 1-3.85 3.85H61.688a3.85 3.85 0 0 1-3.849-3.85V94.36h24.532v29.772h58.27a3.85 3.85 0 0 1 3.85 3.849v16.834Z" style="fill:#fff" transform="rotate(-135 84.645 83.154) scale(.77939)"/></g></svg>

<?xml version="1.0" encoding="UTF-8" standalone="no"?>
<!DOCTYPE svg PUBLIC "-//W3C//DTD SVG 1.1//EN" "http://www.w3.org/Graphics/SVG/1.1/DTD/svg11.dtd">
<svg width="100%" height="100%" viewBox="0 0 192 192" version="1.1" xmlns="http://www.w3.org/2000/svg" xmlns:xlink="http://www.w3.org/1999/xlink" xml:space="preserve" xmlns:serif="http://www.serif.com/" style="fill-rule:evenodd;clip-rule:evenodd;stroke-linejoin:round;stroke-miterlimit:2;">
    <g transform="matrix(1,0,0,1,8,8)">
        <circle cx="88" cy="88" r="88" style="fill:rgb(113,163,114);"/>
        <g transform="matrix(0.551113,0.551113,-0.551113,0.551113,90.3003,-16.9887)">
            <g transform="matrix(0.907255,-0.907255,0.907255,0.907255,-81.0284,97.3385)">
                <path d="M118.836,120.919L102.487,137.268L88.967,123.747L105.27,107.445L118.836,120.919Z" style="fill:white;"/>
            </g>
            <g transform="matrix(1,0,0,1,-8,-8)">
                <path d="M144.491,144.815C144.491,146.941 142.767,148.665 140.641,148.665L61.688,148.665C60.667,148.665 59.688,148.259 58.966,147.537C58.244,146.815 57.839,145.836 57.839,144.815C57.839,129.509 57.839,73.784 57.839,73.784L82.371,73.784C82.371,73.784 82.371,124.132 82.371,124.132L140.641,124.132C141.662,124.132 142.641,124.538 143.363,125.26C144.085,125.981 144.491,126.96 144.491,127.981C144.491,132.578 144.491,140.219 144.491,144.815Z" style="fill:rgb(152,220,154);"/>
            </g>
            <g transform="matrix(-1,-1.66533e-16,1.66533e-16,-1,194.329,202.677)">
                <path d="M144.491,144.815C144.491,146.941 142.767,148.665 140.641,148.665L61.688,148.665C59.562,148.665 57.839,146.941 57.839,144.815C57.839,132.422 57.839,94.36 57.839,94.36L82.371,94.36C82.371,94.36 82.371,124.132 82.371,124.132L140.641,124.132C141.662,124.132 142.641,124.538 143.363,125.26C144.085,125.981 144.491,126.96 144.491,127.981C144.491,132.578 144.491,140.219 144.491,144.815Z" style="fill:white;"/>
            </g>
        </g>
    </g>
</svg>
